X: 20543
Q: "Moderagely quick."
M: 6/8
L: 1/8
K: G
dBG dBG | d3 =f3 |
e^fg dcB | BAz zBc |\
dBG dBG | d3 g3 | fed Ade | (f2d d2)D |\
dBd cBA | g2g efg | d>cB A>GA | B3 G2 |]


